src/assets/duotone/RecoveryConvert.svg

<svg width="24" height="24" viewBox="0 0 24 24"  xmlns="http://www.w3.org/2000/svg">
<path d="M15.0002 22.7502C14.7302 22.7502 14.4802 22.6002 14.3502 22.3702C14.2202 22.1302 14.2202 21.8502 14.3602 21.6102L15.4102 19.8602C15.6202 19.5002 16.0902 19.3902 16.4402 19.6002C16.8002 19.8102 16.9102 20.2702 16.7002 20.6302L16.4302 21.0802C19.1902 20.4302 21.2602 17.9502 21.2602 14.9902C21.2602 14.5802 21.6002 14.2402 22.0102 14.2402C22.4202 14.2402 22.7602 14.5802 22.7602 14.9902C22.7502 19.2702 19.2702 22.7502 15.0002 22.7502Z" />
<path d="M2 9.75C1.59 9.75 1.25 9.41 1.25 9C1.25 4.73 4.73 1.25 9 1.25C9.27 1.25 9.52 1.4 9.65 1.63C9.78 1.87 9.78 2.15 9.64 2.39L8.59 4.14C8.38 4.49 7.92 4.61 7.56 4.39C7.21 4.18 7.09 3.72 7.31 3.36L7.58 2.91C4.81 3.56 2.75 6.04 2.75 9C2.75 9.41 2.41 9.75 2 9.75Z" />
<path opacity="0.4" d="M14.8 12.6302V15.5702C14.8 18.0202 13.82 19.0002 11.37 19.0002H8.43C5.98 19.0002 5 18.0202 5 15.5702V12.6302C5 10.1802 5.98 9.2002 8.43 9.2002H11.37C13.82 9.2002 14.8 10.1802 14.8 12.6302Z" />
<path opacity="0.4" d="M15.57 5H12.63C10.22 5 9.23996 5.96 9.20996 8.32H11.37C14.31 8.32 15.67 9.69 15.67 12.62V14.78C18.04 14.75 18.99 13.77 18.99 11.36V8.43C19 5.98 18.02 5 15.57 5Z" />
</svg>

<?xml version="1.0" encoding="UTF-8"?>
<svg width="24" height="24" viewBox="0 0 24 24" xmlns="http://www.w3.org/2000/svg">
 <path d="m15 22.75c-0.27 0-0.52-0.15-0.65-0.38-0.13-0.24-0.13-0.52 0.01-0.76l1.05-1.75c0.21-0.36 0.68-0.47 1.03-0.26 0.36 0.21 0.47 0.67 0.26 1.03l-0.27 0.45c2.76-0.65 4.83-3.13 4.83-6.09 0-0.41 0.34-0.75 0.75-0.75s0.75 0.34 0.75 0.75c-0.01 4.28-3.49 7.76-7.76 7.76z"/>
 <path d="M2 9.75C1.59 9.75 1.25 9.41 1.25 9C1.25 4.73 4.73 1.25 9 1.25C9.27 1.25 9.52 1.4 9.65 1.63C9.78 1.87 9.78 2.15 9.64 2.39L8.59 4.14C8.38 4.49 7.92 4.61 7.56 4.39C7.21 4.18 7.09 3.72 7.31 3.36L7.58 2.91C4.81 3.56 2.75 6.04 2.75 9C2.75 9.41 2.41 9.75 2 9.75Z"/>
 <path d="m14.8 12.63v2.94c0 2.45-0.98 3.43-3.43 3.43h-2.94c-2.45 0-3.43-0.98-3.43-3.43v-2.94c0-2.45 0.98-3.43 3.43-3.43h2.94c2.45 0 3.43 0.98 3.43 3.43z" opacity=".4"/>
 <path d="m15.57 5h-2.94c-2.41 0-3.39 0.96-3.42 3.32h2.16c2.94 0 4.3 1.37 4.3 4.3v2.16c2.37-0.03 3.32-1.01 3.32-3.42v-2.93c0.01-2.45-0.97-3.43-3.42-3.43z" opacity=".4"/>
</svg>
